humanity-icon-theme/Humanity/status/48/dialog-warning.svg

<?xml version="1.0" encoding="UTF-8" standalone="no"?>
<!-- Created with Inkscape (http://www.inkscape.org/) -->
<svg
   xmlns:svg="http://www.w3.org/2000/svg"
   xmlns="http://www.w3.org/2000/svg"
   xmlns:xlink="http://www.w3.org/1999/xlink"
   version="1.0"
   width="48"
   height="48"
   id="svg3247">
  <defs
     id="defs3249">
    <linearGradient
       id="linearGradient4873">
      <stop
         id="stop4875"
         style="stop-color:#ffffff;stop-opacity:1"
         offset="0" />
      <stop
         id="stop4877"
         style="stop-color:#ffffff;stop-opacity:0"
         offset="1" />
    </linearGradient>
    <linearGradient
       x1="63.397362"
       y1="-12.489107"
       x2="63.397362"
       y2="5.4675598"
       id="linearGradient2411"
       xlink:href="#linearGradient4873"
       gradientUnits="userSpaceOnUse"
       gradientTransform="matrix(2.1153735,0,0,2.1153253,-107.57709,32.426559)" />
    <linearGradient
       id="linearGradient2490">
      <stop
         id="stop2492"
         style="stop-color:#791235;stop-opacity:1"
         offset="0" />
      <stop
         id="stop2494"
         style="stop-color:#dd3b27;stop-opacity:1"
         offset="1" />
    </linearGradient>
    <linearGradient
       x1="18.379412"
       y1="44.980297"
       x2="18.379412"
       y2="3.0816143"
       id="linearGradient2416"
       xlink:href="#linearGradient2490"
       gradientUnits="userSpaceOnUse"
       gradientTransform="matrix(0.9584364,0,0,0.9584366,0.9975246,1.9975253)" />
    <linearGradient
       id="linearGradient3242">
      <stop
         id="stop3244"
         style="stop-color:#f8b17e;stop-opacity:1"
         offset="0" />
      <stop
         id="stop3246"
         style="stop-color:#e35d4f;stop-opacity:1"
         offset="0.26238" />
      <stop
         id="stop3248"
         style="stop-color:#c6262e;stop-opacity:1"
         offset="0.66093999" />
      <stop
         id="stop3250"
         style="stop-color:#690b54;stop-opacity:1"
         offset="1" />
    </linearGradient>
    <radialGradient
       cx="23.895569"
       cy="3.9900031"
       r="20.397499"
       fx="23.895569"
       fy="3.9900031"
       id="radialGradient2414"
       xlink:href="#linearGradient3242"
       gradientUnits="userSpaceOnUse"
       gradientTransform="matrix(0,2.2874593,-3.0194057,0,36.047437,-50.630156)" />
    <linearGradient
       id="linearGradient8838">
      <stop
         id="stop8840"
         style="stop-color:#000000;stop-opacity:1"
         offset="0" />
      <stop
         id="stop8842"
         style="stop-color:#000000;stop-opacity:0"
         offset="1" />
    </linearGradient>
    <radialGradient
       cx="62.625"
       cy="4.625"
       r="10.625"
       fx="62.625"
       fy="4.625"
       id="radialGradient2419"
       xlink:href="#linearGradient8838"
       gradientUnits="userSpaceOnUse"
       gradientTransform="matrix(2.1647059,0,0,0.7529402,-111.56471,36.517647)" />
  </defs>
  <g
     id="layer1">
    <g
       id="g3275">
      <path
         d="M 46.999997,40 C 46.999997,44.418278 36.702545,48 23.999997,48 C 11.297449,48 0.9999968,44.418278 0.9999968,40 C 0.9999968,35.581722 11.297449,32 23.999997,32 C 36.702545,32 46.999997,35.581722 46.999997,40 L 46.999997,40 z"
         id="path8836"
         style="opacity:0.3;fill:url(#radialGradient2419);fill-opacity:1;fill-rule:evenodd;stroke:none;stroke-width:0.99999988;stroke-linecap:butt;stroke-linejoin:round;marker:none;marker-start:none;marker-mid:none;marker-end:none;stroke-miterlimit:4;stroke-dasharray:none;stroke-dashoffset:0;stroke-opacity:1;visibility:visible;display:inline;overflow:visible" />
      <path
         d="M 24.000002,5.5018088 C 13.241573,5.5018088 4.5018088,14.24157 4.5018088,25 C 4.5018088,35.75843 13.241573,44.498195 24.000002,44.498192 C 34.758427,44.498192 43.498201,35.75843 43.498191,25 C 43.498191,14.24157 34.758427,5.5018088 24.000002,5.5018088 z"
         id="path2555"
         style="fill:url(#radialGradient2414);fill-opacity:1;stroke:url(#linearGradient2416);stroke-width:1.003654;stroke-linecap:round;stroke-linejoin:round;stroke-miterlimit:4;stroke-dasharray:none;stroke-dashoffset:0;stroke-opacity:1" />
      <path
         d="M 42.500002,24.999344 C 42.500002,35.216942 34.21666,43.5 24.000235,43.5 C 13.782875,43.5 5.5000003,35.216848 5.5000003,24.999344 C 5.5000003,14.782219 13.782875,6.5000001 24.000235,6.5000001 C 34.21666,6.5000001 42.500002,14.782219 42.500002,24.999344 L 42.500002,24.999344 z"
         id="path8655"
         style="opacity:0.4;fill:none;fill-opacity:1;fill-rule:nonzero;stroke:url(#linearGradient2411);stroke-width:1;stroke-miterlimit:4;stroke-dasharray:none;stroke-opacity:1" />
    </g>
    <g
       transform="translate(51.0751,0.5686178)"
       id="g3243">
      <path
         d="M -29.450843,12.554367 C -28.887858,18.053692 -28.242987,23.515169 -27.763742,29.036034 C -27.281714,29.036034 -26.716351,29.036034 -26.234323,29.036034 C -25.836803,23.734252 -25.195626,18.464507 -24.733102,13.169298 C -24.49733,11.915467 -25.141086,10.426778 -26.465101,10.122153 C -27.773429,9.7396376 -29.235155,10.686867 -29.409124,12.039908 C -29.437976,12.20976 -29.450848,12.382146 -29.450842,12.554367 L -29.450843,12.554367 z M -29.617699,34.913073 C -29.677232,36.550012 -27.876067,37.83321 -26.338221,37.314237 C -24.848708,36.93409 -24.064158,35.061948 -24.827537,33.731179 C -25.510892,32.355537 -27.514793,31.902288 -28.667544,32.955124 C -29.250238,33.433846 -29.636457,34.148513 -29.617698,34.913074 L -29.617699,34.913073 z"
         id="path3295"
         style="font-size:62.4582634px;font-style:normal;font-variant:normal;font-weight:normal;font-stretch:normal;text-align:start;line-height:125%;writing-mode:lr-tb;text-anchor:start;opacity:0.2;fill:#000000;fill-opacity:1;stroke:none;stroke-width:0.5;stroke-linecap:round;stroke-linejoin:round;stroke-miterlimit:4;stroke-dasharray:none;stroke-opacity:1;font-family:Georgia" />
      <path
         d="M -29.450843,13.554676 C -28.887858,19.054001 -28.242987,24.515478 -27.763742,30.036343 C -27.281714,30.036343 -26.716351,30.036343 -26.234323,30.036343 C -25.836803,24.734561 -25.195626,19.464816 -24.733102,14.169607 C -24.49733,12.915776 -25.141086,11.427087 -26.465101,11.122462 C -27.773429,10.739947 -29.235155,11.687176 -29.409124,13.040217 C -29.437976,13.210069 -29.450848,13.382455 -29.450842,13.554676 L -29.450843,13.554676 z M -29.617699,35.913382 C -29.677232,37.550321 -27.876067,38.833519 -26.338221,38.314546 C -24.848708,37.934399 -24.064158,36.062257 -24.827537,34.731488 C -25.510892,33.355846 -27.514793,32.902597 -28.667544,33.955433 C -29.250238,34.434155 -29.636457,35.148822 -29.617698,35.913383 L -29.617699,35.913382 z"
         id="text2315"
         style="font-size:62.4582634px;font-style:normal;font-variant:normal;font-weight:normal;font-stretch:normal;text-align:start;line-height:125%;writing-mode:lr-tb;text-anchor:start;fill:#ffffff;fill-opacity:1;stroke:none;stroke-width:0.5;stroke-linecap:round;stroke-linejoin:round;stroke-miterlimit:4;stroke-dasharray:none;stroke-opacity:1;font-family:Georgia" />
    </g>
  </g>
</svg>

<?xml version="1.0" encoding="UTF-8" standalone="no"?>
<!-- Created with Inkscape (http://www.inkscape.org/) -->
<svg id="svg3247" xmlns="http://www.w3.org/2000/svg" height="48" width="48" version="1.0" xmlns:xlink="http://www.w3.org/1999/xlink">
 <defs id="defs3249">
  <linearGradient id="linearGradient2411" y2="5.4676" gradientUnits="userSpaceOnUse" x2="63.397" gradientTransform="matrix(2.1154 0 0 2.1153 -107.58 32.427)" y1="-12.489" x1="63.397">
   <stop id="stop4875" style="stop-color:#fff" offset="0"/>
   <stop id="stop4877" style="stop-color:#fff;stop-opacity:0" offset="1"/>
  </linearGradient>
  <linearGradient id="linearGradient2416" y2="3.0816" gradientUnits="userSpaceOnUse" x2="18.379" gradientTransform="matrix(.95844 0 0 .95844 .99752 1.9975)" y1="44.98" x1="18.379">
   <stop id="stop2492" style="stop-color:#791235" offset="0"/>
   <stop id="stop2494" style="stop-color:#dd3b27" offset="1"/>
  </linearGradient>
  <radialGradient id="radialGradient2414" gradientUnits="userSpaceOnUse" cy="3.99" cx="23.896" gradientTransform="matrix(0 2.2875 -3.0194 0 36.047 -50.63)" r="20.397">
   <stop id="stop3244" style="stop-color:#f8b17e" offset="0"/>
   <stop id="stop3246" style="stop-color:#e35d4f" offset=".26238"/>
   <stop id="stop3248" style="stop-color:#c6262e" offset=".66094"/>
   <stop id="stop3250" style="stop-color:#690b54" offset="1"/>
  </radialGradient>
  <radialGradient id="radialGradient2419" gradientUnits="userSpaceOnUse" cy="4.625" cx="62.625" gradientTransform="matrix(2.1647 0 0 .75294 -111.56 36.518)" r="10.625">
   <stop id="stop8840" offset="0"/>
   <stop id="stop8842" style="stop-opacity:0" offset="1"/>
  </radialGradient>
 </defs>
 <g id="layer1">
  <g id="g3275">
   <path id="path8836" style="opacity:.3;fill-rule:evenodd;fill:url(#radialGradient2419)" d="m47 40c0 4.418-10.297 8-23 8s-23-3.582-23-8 10.297-8 23-8 23 3.582 23 8z"/>
   <path id="path2555" style="stroke-linejoin:round;stroke:url(#linearGradient2416);stroke-linecap:round;stroke-width:1.0037;fill:url(#radialGradient2414)" d="m24 5.5018c-10.758 0-19.498 8.7402-19.498 19.498-0.0002 10.758 8.74 19.498 19.498 19.498s19.498-8.74 19.498-19.498-8.74-19.498-19.498-19.498z"/>
   <path id="path8655" style="opacity:.4;stroke:url(#linearGradient2411);fill:none" d="m42.5 24.999c0 10.218-8.283 18.501-18.5 18.501s-18.5-8.283-18.5-18.501c0-10.217 8.283-18.499 18.5-18.499s18.5 8.282 18.5 18.499z"/>
  </g>
  <g id="g3243" transform="translate(51.075 .56862)">
   <path id="path3295" style="opacity:.2" d="m-29.451 12.554c0.563 5.5 1.208 10.961 1.687 16.482h1.53c0.397-5.302 1.038-10.571 1.501-15.867 0.236-1.254-0.408-2.742-1.732-3.047-1.308-0.3824-2.77 0.565-2.944 1.918-0.029 0.17-0.042 0.342-0.042 0.514zm-0.167 22.359c-0.059 1.637 1.742 2.92 3.28 2.401 1.489-0.38 2.274-2.252 1.51-3.583-0.683-1.375-2.687-1.829-3.84-0.776-0.582 0.479-0.968 1.194-0.95 1.958z"/>
   <path id="text2315" style="fill:#fff" d="m-29.451 13.555c0.563 5.499 1.208 10.96 1.687 16.481h1.53c0.397-5.301 1.038-10.571 1.501-15.866 0.236-1.254-0.408-2.743-1.732-3.048-1.308-0.382-2.77 0.565-2.944 1.918-0.029 0.17-0.042 0.342-0.042 0.515zm-0.167 22.358c-0.059 1.637 1.742 2.921 3.28 2.402 1.489-0.381 2.274-2.253 1.51-3.584-0.683-1.375-2.687-1.828-3.84-0.776-0.582 0.479-0.968 1.194-0.95 1.958z"/>
  </g>
 </g>
</svg>
